src/lib/packages/icons/src/assets/filled/arrow-turn-left-down.svg

<svg width="24" height="24" viewBox="0 0 24 24" fill="none" xmlns="http://www.w3.org/2000/svg">
<path d="M19 3C19 3.552 18.553 4 18 4H13C11.897 4 11 4.897 11 6V18.5859L13.293 16.293C13.684 15.902 14.3161 15.902 14.7071 16.293C15.0981 16.684 15.0981 17.316 14.7071 17.707L10.708 21.7061C10.615 21.7991 10.5051 21.8721 10.3821 21.9231C10.2601 21.9741 10.13 22 10 22C9.87004 22 9.73996 21.9731 9.61796 21.9231C9.49496 21.8721 9.38503 21.7991 9.29203 21.7061L5.29301 17.707C4.90201 17.316 4.90201 16.684 5.29301 16.293C5.68401 15.902 6.31607 15.902 6.70707 16.293L9.00004 18.5859V6C9.00004 3.794 10.794 2 13 2H18C18.553 2 19 2.448 19 3Z" fill="currentColor"/>
</svg>

<svg xmlns="http://www.w3.org/2000/svg" width="24" height="24" fill="none"><path fill="currentColor" d="M19 3a1 1 0 0 1-1 1h-5c-1.103 0-2 .897-2 2v12.586l2.293-2.293a.999.999 0 1 1 1.414 1.414l-3.999 4a1 1 0 0 1-1.416 0l-3.999-4a.999.999 0 1 1 1.414-1.414L9 18.586V6c0-2.206 1.794-4 4-4h5a1 1 0 0 1 1 1Z"/></svg>
